X:1
T:D minor Oliver Holden, 1803
T:John Newton, 1779 Praying For a Revival 88. 88. (L. M.)
T:Neglected Harp No copyright. Transcribed from The Charlestown Collection, 1803.
%%score [ 1 2 3 ]
L:1/8
M:4/4
K:F
V:1 treble nm="Treble" snm="Tr."
V:2 treble-8 nm="Tenor" snm="T."
V:3 bass nm="Bass" snm="B."
V:1
 A4 A2 A2 | A3 A A2 A2 | A4 A4 | A2 A2 A4 | A4 ^G2 G2 | A8 | A4 d2 A2 | A2 A2 A2 Ad | ^c6 d2 | %9
 f2 c2 d2 d2 | c4 B4 | !fermata!A4 A4 | A2 G2 F3 A | d2 AG F4 | f4 d2 A2 | A6 d2 | ^c4 A4 | A8 |] %18
V:2
 d4 c2 c2 | F3 G E2 E2 | D4 d4 | e2 e2 ^c4 | d4 =B2 B2 | A8 | F4 A2 D2 | D2 D2 df ed | A6 F2 | %9
w: 1.~Take down thy|long ne- glec- ted|harp; I've|seen thy tears|and heard thy|prayer;|The win- ter|seas- son has * been *|sharp, but|
 c2 c2 G2 G2 | (A2 G2) (F2 E2) | !fermata!F4 f4 | c2 B2 A3 c | AG FE D4 | d4 fe d^c | (d3 efd) AG | %16
w: spring shall all its|wstes * re- *|pair; The|win- ter sea- son|has * been * sharp,|but spring * shall *|all~ _ _ _ its *|
 A4 ^c4 | d8 |] %18
w: wastes re-|pair.|
V:3
 D,4 F,2 E,2 | D,3 D, ^C,2 C,2 | D,4 D,4 | A,2 A,2 A,4 | D,4 E,2 E,2 | A,,8 | D,4 D,2 D,2 | %7
 F,2 F,2 A,2 A,2 | A,6 D,2 | A,2 A,2 B,2 B,2 | C4 C,4 | !fermata!F,4 F,4 | F,2 G,2 A,3 A, | %13
 D,E, F,G, A,4 | D,4 D,E, F,A, | (D,3 ^C, D,2) F,G, | A,4 A,,4 | D,8 |] %18

